X: 3
T: Christus iam surexit
C: Anonim
%%abc-version 2.0
%%abcx-abcm2ps-target-version 5.9.1 (29 Sep 2008)
%%abc-creator hum2abc beta
%%abcx-conversion-date 2021/10/04 07:56:47
%%abc-edited-by Marcin Konik
%%abc-edited-by Marcin Konik
%%abc-edited-by Leszek Kubiak
%%abcx-initial-encoding-date 2015-03-14
%%humdrum-veritas 380347518
%%humdrum-veritas-data 8417517
%%linebreak <none>
%%barnumbers 0
L: 1/4
M: 2/1
N: Derived from pl-stab--st-a--003_anonim--christus-iam-surexit.krn
K: C clef=C1
d4A4 [|] 
c4B4 [|] 
A2d4c2 [|] 
d8 [|] 
c4B2G2 [|] 
A2c2d4 [|] 
c4B4 [|] 
A8 [|] 
B2>c2d3c [|] 
A2>B2c4 [|] 
B2c2A2d2 [|] 
^c8 [|] 
d4A4 [|] 
c4G4 [|] 
A2d2c4 [|] 
d8 [|] 
e2>d2c2B2 [|] 
A4d4 [|] 
c2B2c4 [|] 
d8 [|] 
G4c3B [|] 
A4c2A2 [|] 
B2c2A2d2 | 
c8 [|] 
d8 | 


